X:9
T:Fr. Newman's reel
R:reel
M:C|
K:G
~e3g edBA|~G3B dGBd|e~a3 bagb|agea gedg|
~e3g edBA|~G3B dGBd|
e2af gedg|1 edBA GABd:|2 edBA ~G3B||
d~G3 edBc|d~g3 fgaf|d~g3 abag|fage ~f3e|
d~G3 edBc|d~g3 fgaf|1 d~g3 gedg|
edBA ~G3B:|2 e2af gedg|edBA G4||
